; generated by PrusaSlicer 2.6.1+MacOS-arm64 on 2023-10-25 at 11:09:32 UTC


;
;
; 

; external perimeters extrusion width = 0.45mm
; perimeters extrusion width = 0.45mm
; infill extrusion width = 0.45mm
; solid infill extrusion width = 0.45mm
; top infill extrusion width = 0.40mm
; first layer extrusion width = 0.42mm

; external perimeters extrusion width = 0.45mm
; perimeters extrusion width = 0.45mm
; infill extrusion width = 0.45mm
; solid infill extrusion width = 0.45mm
; top infill extrusion width = 0.40mm
; first layer extrusion width = 0.42mm

M73 P0 R253
M73 Q0 S254
M201 X1000 Y1000 Z200 E5000 ; sets maximum accelerations, mm/sec^2
M203 X200 Y200 Z12 E120 ; sets maximum feedrates, mm / sec
M204 S1250 T1250 ; sets acceleration (S) and retract acceleration (R), mm/sec^2
M205 X8.00 Y8.00 Z0.40 E4.50 ; sets the jerk limits, mm/sec
M205 S0 T0 ; sets the minimum extruding and travel feed rate, mm/sec
;TYPE:Custom
M862.3 P "MK3" ; printer model check
M862.1 P0.4 ; nozzle diameter check
M115 U3.13.1 ; tell printer latest fw version
G90 ; use absolute coordinates
M83 ; extruder relative mode
M104 S205 ; set extruder temp
M140 S60 ; set bed temp
M190 S60 ; wait for bed temp
M109 S205 ; wait for extruder temp
G28 W ; home all without mesh bed level
G80 ; mesh bed leveling

G1 Z0.2 F720
G1 Y-3 F1000 ; go outside print area
G92 E0
G1 X60 E9 F1000 ; intro line
G1 X100 E12.5 F1000 ; intro line

G92 E0
M221 S95

; Don't change E values below. Excessive value can damage the printer.
M907 E430 ; set extruder motor current
G21 ; set units to millimeters
G90 ; use absolute coordinates
M83 ; use relative distances for extrusion
M900 K0.05 ; Filament gcode LA 1.5
M900 K30 ; Filament gcode LA 1.0

M107
;LAYER_CHANGE
;Z:0.2
;HEIGHT:0.2
;BEFORE_LAYER_CHANGE
G92 E0.0
;0.2


G1 E-.8 F2100
G1 Z.4 F720
;AFTER_LAYER_CHANGE
;0.2
G1 X44.808 Y69.182 F10800
G1 Z.2 F720
G1 E.8 F2100
M204 S800
;TYPE:Skirt/Brim
;WIDTH:0.42
G1 F1200
G1 X45.661 Y68.777 E.02961
G1 X162.065 Y27.102 E3.87663
G1 X162.866 Y26.963 E.02549
G1 X223.038 Y26.963 E1.88665
G1 X224.719 Y27.659 E.05705
M73 P0 R252
G1 X227.706 Y30.647 E.13247
G1 X228.402 Y32.327 E.05702
G1 X228.402 Y168.835 E4.28011
G1 X228.19 Y170.614 E.05617
G1 X227.917 Y171.554 E.03069
G1 X227.4 Y172.75 E.04085
G1 X226.893 Y173.587 E.03068
G1 X226.084 Y174.608 E.04084
G1 X225.378 Y175.286 E.03069
G1 X224.591 Y175.89 E.03111
G1 X223.753 Y176.397 E.03071
G1 X222.558 Y176.914 E.04082
G1 X221.617 Y177.187 E.03072
G1 X220.404 Y177.366 E.03844
G1 X156.174 Y183.671 E2.02357
G1 X19.666 Y183.671 E4.28011
G1 X17.986 Y182.975 E.05702
G1 X14.998 Y179.988 E.13247
G1 X14.302 Y178.307 E.05705
G1 X14.302 Y118.135 E1.88665
G1 X14.643 Y116.908 E.03993
M73 Q0 S253
G1 X41.478 Y72.383 E1.63
G1 X42.094 Y71.489 E.03404
G1 X42.747 Y70.742 E.03111
G1 X43.715 Y69.89 E.04043
G1 X44.757 Y69.214 E.03894
M204 S1000
;WIPE_START
G1 F8640
G1 X45.661 Y68.777 E-.23185
G1 X47.978 Y67.948 E-.56815
;WIPE_END
G1 Z.6 F720
G1 X46.074 Y71.532 F10800
G1 Z.2 F720
G1 E.8 F2100
M204 S800
G1 F1200
G1 X47.793 Y70.909 E.05733
G1 X49.56 Y70.819 E.05547
G1 X50.796 Y71.067 E.03953
G1 X102.393 Y88.474 E1.70737
G1 X103.83 Y89.241 E.05107
G1 X104.852 Y90.17 E.0433
G1 X105.62 Y91.273 E.04214
G1 X106.124 Y92.516 E.04206
G1 X106.338 Y93.818 E.04137
G1 X106.353 Y114.549 E.65001
G1 X106.401 Y115.09 E.01703
G1 X106.492 Y115.428 E.01098
G1 X106.601 Y115.661 E.00807
G1 X106.86 Y116.033 E.01421
G1 X107.036 Y116.209 E.0078
G1 X107.329 Y116.418 E.01128
G1 X107.635 Y116.562 E.0106
G1 X107.961 Y116.651 E.0106
G1 X108.502 Y116.698 E.01703
G1 X134.091 Y116.698 E.80233
G1 X133.205 Y115.055 E.05853
G1 X115.782 Y63.408 E1.70902
G1 X115.523 Y61.759 E.05234
G1 X115.663 Y60.338 E.04477
G1 X116.074 Y59.114 E.04048
G1 X117.344 Y57.299 E.06946
G1 X118.352 Y56.515 E.04004
G1 X119.508 Y55.945 E.04041
G1 X158.644 Y42.743 E1.29502
G1 X159.151 Y42.519 E.01738
G1 X159.436 Y42.325 E.01081
G1 X159.699 Y42.067 E.01155
G1 X159.85 Y41.856 E.00814
G1 X160.04 Y41.455 E.01391
G1 X160.114 Y41.186 E.00875
G1 X160.165 Y40.621 E.01779
G1 X160.182 Y33.887 E.21114
G1 X160.538 Y32.552 E.04332
G1 X161.224 Y31.413 E.04169
G1 X162.261 Y30.449 E.04439
G1 X163.86 Y29.738 E.05487
G1 X164.68 Y29.626 E.02595
G1 X221.315 Y29.63 E1.77575
G1 X222.335 Y29.824 E.03255
G1 X223.313 Y30.24 E.03332
G1 X224.438 Y31.135 E.04507
G1 X225.331 Y32.473 E.05044
G1 X225.739 Y34.019 E.05013
G1 X225.739 Y168.86 E4.22784
G1 X225.435 Y170.569 E.05443
G1 X224.773 Y171.959 E.04827
G1 X224.005 Y172.919 E.03855
G1 X223.112 Y173.674 E.03667
G1 X221.594 Y174.424 E.05309
G1 X219.855 Y174.736 E.0554
G1 X167.304 Y174.736 E1.6477
G1 X165.488 Y174.396 E.05793
G1 X164.159 Y173.74 E.04647
G1 X163.216 Y172.972 E.03813
G1 X162.074 Y171.576 E.05655
G1 X162.069 Y175.193 E.11341
G1 X161.792 Y176.776 E.05039
G1 X161.229 Y178.034 E.04321
G1 X160.424 Y179.104 E.04198
G1 X158.742 Y180.363 E.06588
G1 X157.475 Y180.828 E.04232
G1 X156.159 Y181.008 E.04165
G1 X21.359 Y181.008 E4.22656
G1 X19.768 Y180.581 E.05165
G1 X18.689 Y179.895 E.04009
G1 X17.928 Y179.097 E.03457
G1 X17.47 Y178.371 E.02691
G1 X16.965 Y176.639 E.05657
G1 X16.965 Y119.946 E1.77757
G1 X17.079 Y119.121 E.02611
M73 P0 R251
G1 X17.79 Y117.528 E.0547
G1 X18.752 Y116.493 E.0443
G1 X19.891 Y115.807 E.04169
G1 X21.226 Y115.451 E.04332
G1 X27.96 Y115.434 E.21114
G1 X28.525 Y115.383 E.01779
G1 X28.794 Y115.309 E.00875
G1 X29.195 Y115.119 E.01391
G1 X29.406 Y114.968 E.00814
G1 X29.664 Y114.705 E.01155
G1 X29.858 Y114.419 E.01084
G1 X30.082 Y113.912 E.01738
G1 X43.296 Y74.743 E1.29612
G1 X44.086 Y73.277 E.05221
G1 X45.053 Y72.236 E.04455
G1 X46.025 Y71.566 E.03702
M204 S1000
G1 X46.228 Y71.877 F10800
M204 S800
G1 F1200
G1 X47.841 Y71.284 E.05388
G1 X49.555 Y71.197 E.05381
G1 X50.686 Y71.428 E.03619
G1 X102.258 Y88.826 E1.70654
G1 X103.631 Y89.562 E.04884
G1 X104.581 Y90.433 E.04041
G1 X105.297 Y91.47 E.03951
G1 X105.766 Y92.637 E.03943
G1 X105.964 Y93.863 E.03894
G1 X105.976 Y114.566 E.64913
G1 X106.028 Y115.156 E.01857
G1 X106.137 Y115.558 E.01306
G1 X106.273 Y115.849 E.01007
G1 X106.569 Y116.276 E.01629
G1 X106.791 Y116.498 E.00984
G1 X107.138 Y116.744 E.01334
G1 X107.504 Y116.917 E.01269
G1 X107.895 Y117.023 E.0127
G1 X108.485 Y117.076 E.01857
G1 X135.002 Y117.076 E.83142
G1 X134.322 Y116.332 E.0316
G1 X133.557 Y114.919 E.05038
G1 X116.144 Y63.303 E1.708
G1 X115.899 Y61.725 E.05007
G1 X116.028 Y60.436 E.04062
G1 X116.4 Y59.306 E.0373
G1 X117.599 Y57.579 E.06592
G1 X118.569 Y56.824 E.03854
G1 X119.64 Y56.299 E.0374
G1 X158.78 Y43.095 E1.29516
G1 X159.334 Y42.85 E.01899
G1 X159.676 Y42.618 E.01296
G1 X159.986 Y42.313 E.01364
G1 X160.176 Y42.048 E.01022
G1 X160.395 Y41.587 E.016
G1 X160.486 Y41.253 E.01085
G1 X160.542 Y40.639 E.01933
G1 X160.559 Y33.913 E.21089
G1 X160.894 Y32.677 E.04015
G1 X161.532 Y31.632 E.03839
G1 X162.493 Y30.748 E.04094
G1 X163.938 Y30.108 E.04955
G1 X164.693 Y30.003 E.0239
G1 X221.296 Y30.007 E1.77475
G1 X222.243 Y30.19 E.03024
G1 X223.14 Y30.575 E.03061
G1 X224.179 Y31.411 E.04181
G1 X224.975 Y32.601 E.04489
G1 X225.362 Y34.044 E.04684
G1 X225.362 Y168.843 E4.22653
G1 X225.069 Y170.476 E.05202
M73 Q0 S252
G1 X224.443 Y171.775 E.04521
G1 X223.724 Y172.668 E.03595
G1 X222.887 Y173.37 E.03425
G1 X221.452 Y174.074 E.05012
G1 X219.839 Y174.359 E.05136
G1 X167.322 Y174.359 E1.64663
G1 X165.584 Y174.03 E.05546
G1 X164.348 Y173.412 E.04333
G1 X163.47 Y172.692 E.0356
G1 X162.741 Y171.8 E.03612
G1 X162.105 Y170.493 E.04557
G1 X162.034 Y170.167 E.01046
G1 X161.698 Y170.203 E.0106
G1 X161.695 Y175.144 E.15492
G1 X161.425 Y176.688 E.04915
G1 X160.914 Y177.826 E.03911
G1 X160.176 Y178.819 E.03879
G1 X158.539 Y180.044 E.06411
G1 X157.366 Y180.466 E.03909
G1 X156.146 Y180.631 E.0386
G1 X21.383 Y180.631 E4.2254
G1 X19.946 Y180.247 E.04664
G1 X18.911 Y179.589 E.03845
G1 X18.235 Y178.878 E.03076
G1 X17.824 Y178.237 E.02387
G1 X17.342 Y176.612 E.05314
G1 X17.342 Y119.959 E1.77632
G1 X17.448 Y119.2 E.02403
G1 X18.088 Y117.76 E.04941
G1 X18.971 Y116.801 E.04087
G1 X20.016 Y116.163 E.03839
G1 X21.252 Y115.828 E.04015
G1 X27.978 Y115.811 E.21089
G1 X28.592 Y115.755 E.01933
G1 X28.926 Y115.664 E.01085
G1 X29.387 Y115.445 E.016
G1 X29.652 Y115.255 E.01022
G1 X29.957 Y114.945 E.01364
G1 X30.189 Y114.603 E.01296
G1 X30.434 Y114.049 E.01899
G1 X43.648 Y74.879 E1.29615
G1 X44.406 Y73.478 E.04994
G1 X45.285 Y72.533 E.04047
G1 X46.178 Y71.912 E.0341
M204 S1000
G1 X46.383 Y72.222 F10800
M204 S800
G1 F1200
G1 X47.89 Y71.659 E.05044
G1 X49.55 Y71.575 E.05211
G1 X50.576 Y71.789 E.03286
G1 X102.122 Y89.178 E1.70568
G1 X103.431 Y89.882 E.0466
G1 X104.309 Y90.695 E.03752
G1 X104.974 Y91.665 E.03687
G1 X105.408 Y92.756 E.03681
G1 X105.589 Y93.907 E.03653
G1 X105.599 Y114.583 E.64828
G1 X105.655 Y115.223 E.02014
G1 X105.781 Y115.688 E.01511
G1 X105.945 Y116.038 E.01212
G1 X106.279 Y116.519 E.01836
G1 X106.547 Y116.787 E.01188
G1 X106.946 Y117.071 E.01536
G1 X107.373 Y117.272 E.0148
G1 X107.828 Y117.396 E.01479
G1 X108.469 Y117.453 E.02018
G1 X135.653 Y117.453 E.85234
G1 X135.736 Y117.19 E.00865
G1 X135.427 Y116.971 E.01188
G1 X134.641 Y116.13 E.03609
G1 X133.909 Y114.783 E.04807
G1 X116.507 Y63.198 E1.70696
G1 X116.275 Y61.692 E.04778
G1 X116.393 Y60.532 E.03656
G1 X116.727 Y59.497 E.0341
G1 X117.854 Y57.858 E.06237
G1 X118.753 Y57.154 E.0358
G1 X119.772 Y56.652 E.03562
G1 X158.917 Y43.447 E1.29532
G1 X159.518 Y43.182 E.02059
G1 X159.916 Y42.911 E.0151
G1 X160.274 Y42.559 E.01574
G1 X160.503 Y42.241 E.01229
G1 X160.75 Y41.718 E.01814
G1 X160.859 Y41.321 E.01291
G1 X160.919 Y40.656 E.02094
G1 X160.936 Y33.94 E.21058
G1 X161.25 Y32.804 E.03695
G1 X161.838 Y31.854 E.03503
G1 X162.723 Y31.048 E.03753
G1 X164.016 Y30.478 E.04431
G1 X164.707 Y30.381 E.02188
G1 X221.278 Y30.384 E1.77374
G1 X222.149 Y30.556 E.02784
G1 X222.966 Y30.911 E.02793
G1 X223.918 Y31.685 E.03847
G1 X224.643 Y32.783 E.04125
G1 X224.985 Y34.068 E.04169
G1 X224.985 Y168.826 E4.22524
G1 X224.702 Y170.383 E.04962
M73 P0 R250
G1 X224.114 Y171.59 E.0421
G1 X223.443 Y172.415 E.03334
G1 X222.664 Y173.065 E.03181
G1 X221.312 Y173.723 E.04714
G1 X219.823 Y173.982 E.04739
G1 X167.34 Y173.982 E1.64557
G1 X165.681 Y173.665 E.05296
G1 X164.57 Y173.107 E.03898
G1 X163.749 Y172.439 E.03319
G1 X163.047 Y171.579 E.03481
G1 X162.458 Y170.356 E.04256
G1 X162.184 Y168.819 E.04895
G1 X162.184 Y121.13 E1.49526
G1 X162.127 Y120.489 E.02018
G1 X162.004 Y120.034 E.01478
G1 X161.802 Y119.607 E.01481
G1 X161.519 Y119.208 E.01534
G1 X161.25 Y118.94 E.01191
G1 X160.769 Y118.606 E.01836
G1 X160.419 Y118.442 E.01212
G1 X159.954 Y118.316 E.01511
G1 X159.286 Y118.257 E.02103
G1 X159.184 Y118.523 E.00893
G1 X159.558 Y118.804 E.01467
G1 X160.763 Y120.384 E.0623
G1 X161.161 Y121.474 E.03638
G1 X161.32 Y122.639 E.03687
G1 X161.32 Y175.095 E1.64472
G1 X161.058 Y176.599 E.04787
G1 X160.579 Y177.652 E.03627
G1 X159.927 Y178.534 E.03439
G1 X158.337 Y179.724 E.06227
G1 X157.26 Y180.104 E.03581
G1 X156.134 Y180.254 E.03562
G1 X21.408 Y180.254 E4.22424
G1 X20.124 Y179.913 E.04165
M73 P1 R250
M73 Q1 S251
G1 X19.133 Y179.284 E.0368
G1 X18.541 Y178.657 E.02704
G1 X18.177 Y178.101 E.02084
G1 X17.72 Y176.584 E.04968
G1 X17.72 Y119.973 E1.775
G1 X17.818 Y119.279 E.02198
G1 X18.388 Y117.991 E.04416
G1 X19.193 Y117.107 E.03749
G1 X20.143 Y116.519 E.03503
G1 X21.279 Y116.205 E.03695
G1 X27.995 Y116.188 E.21058
G1 X28.66 Y116.128 E.02094
G1 X29.057 Y116.019 E.01291
G1 X29.58 Y115.771 E.01815
G1 X29.898 Y115.543 E.01227
G1 X30.25 Y115.185 E.01574
G1 X30.521 Y114.786 E.01512
G1 X30.786 Y114.186 E.02057
G1 X44 Y75.015 E1.29618
G1 X44.726 Y73.679 E.04767
G1 X45.518 Y72.83 E.0364
G1 X46.334 Y72.256 E.03128
M204 S1000
G1 X46.54 Y72.565 F10800
M204 S800
G1 F1200
G1 X47.939 Y72.034 E.04692
G1 X49.544 Y71.953 E.05039
G1 X50.465 Y72.15 E.02953
G1 X101.986 Y89.53 E1.70484
G1 X103.23 Y90.202 E.04433
G1 X104.036 Y90.956 E.03461
G1 X104.65 Y91.859 E.03424
G1 X105.049 Y92.873 E.03417
G1 X105.214 Y93.949 E.03413
G1 X105.221 Y114.599 E.64747
G1 X105.283 Y115.289 E.02172
G1 X105.426 Y115.818 E.01718
G1 X105.616 Y116.227 E.01414
G1 X105.988 Y116.762 E.02043
G1 X106.303 Y117.076 E.01395
G1 X106.755 Y117.398 E.0174
G1 X107.242 Y117.628 E.01689
G1 X107.762 Y117.769 E.01689
G1 X108.452 Y117.83 E.02172
G1 X137.062 Y117.83 E.89705
G1 X137.121 Y117.524 E.00977
G1 X136.591 Y117.312 E.0179
G1 X135.687 Y116.697 E.03428
G1 X134.933 Y115.891 E.03461
G1 X134.261 Y114.647 E.04433
G1 X116.87 Y63.093 E1.70593
G1 X116.652 Y61.659 E.04548
G1 X116.759 Y60.627 E.03253
G1 X117.054 Y59.685 E.03095
G1 X118.111 Y58.135 E.05882
G1 X118.938 Y57.483 E.03302
G1 X119.905 Y57.005 E.03382
G1 X159.054 Y43.799 E1.29545
G1 X159.701 Y43.513 E.02218
G1 X160.156 Y43.204 E.01725
G1 X160.561 Y42.806 E.0178
G1 X160.829 Y42.433 E.0144
G1 X161.105 Y41.85 E.02022
G1 X161.232 Y41.388 E.01502
G1 X161.296 Y40.674 E.02248
G1 X161.313 Y33.967 E.21029
G1 X161.605 Y32.934 E.03366
G1 X162.143 Y32.077 E.03173
G1 X162.953 Y31.349 E.03415
G1 X164.095 Y30.847 E.03911
G1 X164.72 Y30.758 E.01979
G1 X221.258 Y30.761 E1.77271
G1 X222.054 Y30.921 E.02546
G1 X222.789 Y31.245 E.02519
G1 X223.655 Y31.957 E.03515
G1 X224.31 Y32.963 E.03764
G1 X224.608 Y34.092 E.03661
G1 X224.608 Y168.809 E4.22396
G1 X224.336 Y170.289 E.04718
G1 X223.786 Y171.402 E.03893
G1 X223.164 Y172.161 E.03077
G1 X222.441 Y172.761 E.02946
G1 X221.22 Y173.356 E.04259
G1 X219.807 Y173.604 E.04498
G1 X167.357 Y173.604 E1.64453
G1 X165.826 Y173.316 E.04885
G1 X164.758 Y172.78 E.03747
G1 X164.003 Y172.16 E.03063
G1 X163.377 Y171.395 E.03099
G1 X162.809 Y170.216 E.04103
G1 X162.561 Y168.803 E.04498
G1 X162.561 Y121.113 E1.49529
G1 X162.5 Y120.423 E.02172
G1 X162.359 Y119.903 E.01689
G1 X162.129 Y119.416 E.01689
G1 X161.808 Y118.964 E.01738
G1 X161.493 Y118.649 E.01397
G1 X160.958 Y118.277 E.02043
G1 X160.549 Y118.087 E.01414
G1 X160.02 Y117.944 E.01718
G1 X159.33 Y117.882 E.02172
G1 X157.865 Y117.882 E.04593
G1 X157.8 Y118.178 E.0095
G1 X158.513 Y118.51 E.02466
G1 X159.278 Y119.058 E.02951
G1 X160.419 Y120.541 E.05867
G1 X160.8 Y121.584 E.03482
G1 X160.943 Y122.652 E.03379
G1 X160.943 Y175.078 E1.64378
G1 X160.691 Y176.509 E.04556
G1 X160.263 Y177.446 E.0323
M73 P1 R249
G1 X159.677 Y178.25 E.03119
G1 X158.182 Y179.379 E.05874
G1 X157.19 Y179.733 E.03302
G1 X156.121 Y179.876 E.03382
G1 X21.432 Y179.876 E4.22308
G1 X20.301 Y179.579 E.03666
G1 X19.356 Y178.978 E.03511
G1 X18.845 Y178.433 E.02342
G1 X18.528 Y177.963 E.01778
G1 X18.097 Y176.555 E.04617
G1 X18.097 Y119.987 E1.77365
G1 X18.187 Y119.358 E.01992
G1 X18.689 Y118.22 E.039
G1 X19.416 Y117.412 E.03408
G1 X20.273 Y116.874 E.03173
G1 X21.306 Y116.582 E.03366
G1 X28.013 Y116.565 E.21029
G1 X28.727 Y116.5 E.02248
G1 X29.189 Y116.374 E.01501
G1 X29.772 Y116.098 E.02022
G1 X30.145 Y115.83 E.0144
G1 X30.543 Y115.425 E.0178
G1 X30.852 Y114.97 E.01725
G1 X31.138 Y114.323 E.02218
G1 X44.352 Y75.151 E1.29621
G1 X45.045 Y73.881 E.04536
G1 X45.752 Y73.126 E.03243
G1 X46.492 Y72.6 E.02847
M204 S1000
G1 X46.698 Y72.909 F10800
M204 S800
G1 F1200
G1 X48.044 Y72.398 E.04514
G1 X49.535 Y72.331 E.0468
G1 X50.354 Y72.51 E.02629
G1 X101.85 Y89.882 E1.70402
G1 X103.027 Y90.521 E.04199
G1 X103.761 Y91.215 E.03167
G1 X104.325 Y92.052 E.03165
G1 X104.69 Y92.99 E.03156
G1 X104.839 Y93.991 E.03173
G1 X104.844 Y114.616 E.64668
G1 X104.91 Y115.356 E.02329
G1 X105.07 Y115.948 E.01923
G1 X105.288 Y116.415 E.01616
G1 X105.698 Y117.004 E.0225
G1 X106.059 Y117.365 E.01601
G1 X106.564 Y117.724 E.01943
G1 X107.111 Y117.983 E.01898
G1 X107.695 Y118.141 E.01897
G1 X108.435 Y118.207 E.02329
G1 X156.129 Y118.207 E1.49541
G1 X157.486 Y118.449 E.04322
G1 X158.308 Y118.827 E.02837
G1 X159.035 Y119.348 E.02804
G1 X160.101 Y120.745 E.0551
G1 X160.438 Y121.691 E.03149
G1 X160.566 Y122.664 E.03077
G1 X160.566 Y175.062 E1.6429
G1 X160.324 Y176.419 E.04322
M73 Q1 S250
G1 X159.946 Y177.241 E.02837
G1 X159.425 Y177.968 E.02804
G1 X158.028 Y179.034 E.0551
G1 X157.082 Y179.371 E.03149
G1 X156.109 Y179.499 E.03077
G1 X21.456 Y179.499 E4.22195
G1 X20.478 Y179.245 E.03168
G1 X19.579 Y178.673 E.03341
G1 X19.147 Y178.207 E.01992
G1 X18.879 Y177.821 E.01473
G1 X18.474 Y176.526 E.04254
