; generated by PrusaSlicer 2.6.1+MacOS-arm64 on 2023-10-11 at 15:02:18 UTC


;
;
; 

; external perimeters extrusion width = 0.45mm
; perimeters extrusion width = 0.45mm
; infill extrusion width = 0.45mm
; solid infill extrusion width = 0.45mm
; top infill extrusion width = 0.40mm
; first layer extrusion width = 0.42mm

M73 P0 R30
M73 Q0 S30
M201 X1000 Y1000 Z200 E5000 ; sets maximum accelerations, mm/sec^2
M203 X200 Y200 Z12 E120 ; sets maximum feedrates, mm / sec
M204 S1250 T1250 ; sets acceleration (S) and retract acceleration (R), mm/sec^2
M205 X8.00 Y8.00 Z0.40 E4.50 ; sets the jerk limits, mm/sec
M205 S0 T0 ; sets the minimum extruding and travel feed rate, mm/sec
;TYPE:Custom
M862.3 P "MK3" ; printer model check
M862.1 P0.4 ; nozzle diameter check
M115 U3.13.1 ; tell printer latest fw version
G90 ; use absolute coordinates
M83 ; extruder relative mode
M104 S205 ; set extruder temp
M140 S60 ; set bed temp
M190 S60 ; wait for bed temp
M109 S205 ; wait for extruder temp
G28 W ; home all without mesh bed level
G80 ; mesh bed leveling

G1 Z0.2 F720
G1 Y-3 F1000 ; go outside print area
G92 E0
G1 X60 E9 F1000 ; intro line
G1 X100 E12.5 F1000 ; intro line

G92 E0
M221 S95

; Don't change E values below. Excessive value can damage the printer.
M907 E430 ; set extruder motor current
G21 ; set units to millimeters
G90 ; use absolute coordinates
M83 ; use relative distances for extrusion
M900 K0.05 ; Filament gcode LA 1.5
M900 K30 ; Filament gcode LA 1.0

M107
;LAYER_CHANGE
;Z:0.2
;HEIGHT:0.2
;BEFORE_LAYER_CHANGE
G92 E0.0
;0.2


G1 E-.8 F2100
G1 Z.4 F720
;AFTER_LAYER_CHANGE
;0.2
G1 X98.241 Y79.81 F10800
G1 Z.2 F720
G1 E.8 F2100
M204 S800
;TYPE:Skirt/Brim
;WIDTH:0.42
G1 F1200
G1 X99.559 Y78.449 E.0594
G1 X100.447 Y77.768 E.03509
G1 X101.299 Y77.244 E.03136
G1 X102.103 Y76.847 E.02811
G1 X103.383 Y76.381 E.04271
G1 X104.356 Y76.149 E.03136
G1 X105.465 Y76.003 E.03507
G1 X143.815 Y75.973 E1.20244
G1 X145.644 Y76.149 E.05761
G1 X147.369 Y76.631 E.05616
G1 X148.985 Y77.406 E.05619
G1 X150.441 Y78.449 E.05616
G1 X151.694 Y79.729 E.05616
G1 X152.706 Y81.208 E.05619
G1 X153.445 Y82.84 E.05617
G1 X153.906 Y84.678 E.05941
G1 X154.027 Y86.199 E.04784
G1 X154.004 Y124.431 E1.19874
G1 X153.73 Y126.202 E.05619
G1 X153.331 Y127.466 E.04156
G1 X152.706 Y128.792 E.04596
G1 X151.759 Y130.19 E.05294
G1 X151.096 Y130.938 E.03134
G1 X150.19 Y131.759 E.03834
G1 X149.074 Y132.541 E.04273
G1 X148.194 Y133.017 E.03137
G1 X147.16 Y133.445 E.03509
M73 P0 R29
G1 X146.202 Y133.73 E.03134
G1 X144.86 Y133.967 E.04273
G1 X143.964 Y134.024 E.02815
G1 X105.569 Y134.004 E1.20385
G1 X103.798 Y133.73 E.05619
G1 X102.534 Y133.331 E.04156
G1 X101.208 Y132.706 E.04596
G1 X99.81 Y131.759 E.05294
G1 X99.062 Y131.096 E.03134
G1 X98.241 Y130.19 E.03834
G1 X97.459 Y129.073 E.04275
G1 X96.983 Y128.194 E.03134
G1 X96.555 Y127.16 E.03509
G1 X96.27 Y126.202 E.03134
G1 X96.033 Y124.86 E.04273
G1 X95.976 Y123.964 E.02815
G1 X95.996 Y85.569 E1.20385
G1 X96.169 Y84.254 E.04159
G1 X96.669 Y82.534 E.05616
G1 X97.294 Y81.208 E.04596
G1 X98.207 Y79.86 E.05105
M204 S1000
;WIPE_START
G1 F8640
G1 X99.559 Y78.449 E-.45123
G1 X100.447 Y77.768 E-.2584
G1 X100.78 Y77.563 E-.09037
;WIPE_END
G1 Z.6 F720
G1 X100.28 Y81.564 F10800
G1 Z.2 F720
M73 Q1 S30
G1 E.8 F2100
M204 S800
M73 P1 R29
G1 F1200
G1 X100.781 Y80.955 E.02473
G1 X101.503 Y80.299 E.03059
G1 X102.277 Y79.754 E.02968
G1 X103.715 Y79.071 E.04991
G1 X104.779 Y78.781 E.03458
G1 X105.798 Y78.651 E.03221
G1 X114.057 Y78.647 E.25896
G1 X115.206 Y78.778 E.03626
G1 X116.337 Y79.09 E.03679
G1 X117.5 Y79.623 E.04011
G1 X118.646 Y79.096 E.03955
G1 X119.596 Y78.821 E.03101
G1 X120.554 Y78.669 E.03041
G1 X129.057 Y78.646 E.26661
G1 X130.21 Y78.778 E.03639
G1 X131.341 Y79.091 E.03679
G1 X132.482 Y79.629 E.03955
G1 X133.693 Y79.08 E.04169
G1 X134.857 Y78.766 E.0378
G1 X135.747 Y78.655 E.02812
G1 X144.053 Y78.646 E.26043
G1 X145.192 Y78.775 E.03594
G1 X146.294 Y79.074 E.0358
G1 X147.61 Y79.689 E.04555
G1 X148.716 Y80.479 E.04262
G1 X149.573 Y81.346 E.03822
G1 X150.275 Y82.328 E.03785
G1 X150.833 Y83.46 E.03957
G1 X151.206 Y84.713 E.04099
G1 X151.359 Y86.046 E.04207
G1 X151.344 Y94.277 E.25808
G1 X151.202 Y95.303 E.03248
G1 X150.921 Y96.306 E.03266
G1 X150.372 Y97.52 E.04178
G1 X150.89 Y98.61 E.03784
G1 X151.239 Y99.882 E.04136
G1 X151.362 Y101.115 E.03885
G1 X151.349 Y109.2 E.2535
G1 X151.207 Y110.277 E.03406
G1 X150.921 Y111.308 E.03355
G1 X150.373 Y112.521 E.04173
G1 X150.886 Y113.599 E.03743
G1 X151.238 Y114.877 E.04156
G1 X151.359 Y116.06 E.03729
G1 X151.35 Y124.221 E.25588
G1 X151.112 Y125.693 E.04675
G1 X150.826 Y126.557 E.02854
G1 X150.385 Y127.483 E.03216
G1 X149.935 Y128.188 E.02622
G1 X149.413 Y128.835 E.02607
G1 X148.633 Y129.591 E.03406
G1 X147.752 Y130.225 E.03403
G1 X146.849 Y130.703 E.03204
G1 X145.855 Y131.068 E.0332
G1 X144.229 Y131.35 E.05174
G1 X135.727 Y131.344 E.26657
G1 X134.692 Y131.201 E.03276
G1 X133.685 Y130.918 E.0328
G1 X132.486 Y130.376 E.04126
G1 X131.749 Y130.746 E.02586
G1 X130.669 Y131.117 E.0358
G1 X129.379 Y131.337 E.04103
G1 X120.855 Y131.353 E.26726
G1 X119.779 Y131.219 E.034
G1 X118.694 Y130.921 E.03528
G1 X117.486 Y130.376 E.04155
G1 X116.75 Y130.745 E.02581
G1 X115.675 Y131.115 E.03565
G1 X114.418 Y131.333 E.04
G1 X105.83 Y131.351 E.26927
G1 X104.842 Y131.231 E.03121
G1 X103.838 Y130.972 E.03251
G1 X102.539 Y130.397 E.04454
G1 X101.829 Y129.948 E.02634
G1 X101.165 Y129.413 E.02674
G1 X100.409 Y128.633 E.03406
G1 X99.775 Y127.752 E.03403
G1 X99.297 Y126.849 E.03204
G1 X98.932 Y125.855 E.0332
G1 X98.65 Y124.229 E.05174
G1 X98.658 Y115.699 E.26745
G1 X98.801 Y114.684 E.03214
G1 X99.094 Y113.652 E.03364
G1 X99.456 Y112.818 E.02851
G1 X99.629 Y112.518 E.01086
G1 X99.166 Y111.535 E.03407
G1 X98.865 Y110.595 E.03095
G1 X98.655 Y109.276 E.04188
G1 X98.664 Y100.616 E.27153
G1 X98.884 Y99.329 E.04094
G1 X99.271 Y98.211 E.03709
G1 X99.633 Y97.502 E.02496
G1 X99.26 Y96.762 E.02598
G1 X98.897 Y95.721 E.03457
G1 X98.659 Y94.331 E.04422
G1 X98.649 Y85.828 E.26661
G1 X98.787 Y84.751 E.03404
M73 Q1 S29
G1 X99.049 Y83.78 E.03153
G1 X99.45 Y82.829 E.03236
G1 X99.993 Y81.913 E.03339
G1 X100.242 Y81.61 E.0123
M204 S1000
G1 X100.533 Y81.85 F10800
M204 S800
G1 F1200
G1 X101.063 Y81.205 E.02618
G1 X101.73 Y80.6 E.02823
G1 X102.454 Y80.088 E.0278
G1 X103.861 Y79.419 E.04885
G1 X104.84 Y79.154 E.0318
G1 X105.81 Y79.028 E.03067
G1 X114.025 Y79.022 E.25758
G1 X115.148 Y79.15 E.03544
G1 X116.221 Y79.449 E.03492
G1 X117.317 Y79.955 E.03785
G1 X117.5 Y80.072 E.00681
G1 X117.686 Y79.953 E.00692
G1 X118.765 Y79.454 E.03727
G1 X119.667 Y79.191 E.02946
G1 X120.599 Y79.044 E.02958
G1 X129.026 Y79.022 E.26422
G1 X130.124 Y79.146 E.03465
G1 X131.224 Y79.45 E.03578
G1 X132.518 Y80.063 E.04489
G1 X132.796 Y79.893 E.01022
G1 X133.806 Y79.44 E.03471
G1 X134.942 Y79.133 E.0369
G1 X135.781 Y79.03 E.0265
G1 X144.043 Y79.023 E.25905
G1 X145.108 Y79.143 E.0336
G1 X146.149 Y79.423 E.0338
G1 X147.435 Y80.023 E.04449
G1 X148.482 Y80.776 E.04044
G1 X149.294 Y81.6 E.03627
G1 X149.959 Y82.534 E.03595
G1 X150.488 Y83.612 E.03765
G1 X150.834 Y84.773 E.03798
G1 X150.982 Y86.056 E.04049
G1 X150.967 Y94.263 E.25733
G1 X150.835 Y95.214 E.0301
G1 X150.562 Y96.191 E.03181
G1 X150.094 Y97.228 E.03567
G1 X149.938 Y97.487 E.00948
G1 X150.531 Y98.726 E.04307
G1 X150.871 Y99.966 E.04031
G1 X150.986 Y101.142 E.03705
G1 X150.972 Y109.187 E.25225
G1 X150.835 Y110.214 E.03249
G1 X150.562 Y111.192 E.03184
G1 X150.079 Y112.256 E.03664
G1 X149.938 Y112.488 E.00851
G1 X150.527 Y113.715 E.04267
G1 X150.87 Y114.961 E.04052
G1 X150.983 Y116.088 E.03551
G1 X150.973 Y124.206 E.25453
G1 X150.749 Y125.59 E.04396
G1 X150.48 Y126.406 E.02694
G1 X150.049 Y127.31 E.0314
G1 X149.635 Y127.96 E.02416
G1 X149.142 Y128.573 E.02466
G1 X148.401 Y129.293 E.03239
G1 X147.542 Y129.912 E.0332
G1 X146.685 Y130.363 E.03036
G1 X145.741 Y130.708 E.03151
G1 X144.213 Y130.972 E.04862
G1 X135.765 Y130.969 E.26488
G1 X134.781 Y130.834 E.03114
G1 X133.801 Y130.559 E.03191
G1 X132.742 Y130.078 E.03647
G1 X132.514 Y129.939 E.00837
G1 X131.615 Y130.393 E.03158
G1 X130.56 Y130.755 E.03497
G1 X129.362 Y130.96 E.03811
G1 X120.867 Y130.975 E.26636
G1 X119.84 Y130.846 E.03245
G1 X118.808 Y130.562 E.03356
G1 X117.744 Y130.079 E.03664
G1 X117.514 Y129.939 E.00844
G1 X116.615 Y130.393 E.03158
G1 X115.567 Y130.754 E.03475
G1 X114.401 Y130.956 E.0371
G1 X105.841 Y130.974 E.26839
G1 X104.901 Y130.858 E.0297
G1 X103.948 Y130.611 E.03087
G1 X102.706 Y130.058 E.04263
G1 X102.04 Y129.636 E.02472
G1 X101.427 Y129.142 E.02468
G1 X100.707 Y128.401 E.03239
G1 X100.088 Y127.542 E.0332
G1 X99.637 Y126.685 E.03036
G1 X99.292 Y125.741 E.03151
G1 X99.028 Y124.213 E.04862
G1 X99.033 Y115.738 E.26573
G1 X99.167 Y114.774 E.03052
M73 P2 R29
M73 Q2 S29
G1 X99.453 Y113.767 E.03282
G1 X99.797 Y112.979 E.02696
G1 X100.076 Y112.502 E.01733
G1 X99.941 Y112.293 E.0078
G1 X99.521 Y111.408 E.03071
G1 X99.228 Y110.494 E.03009
G1 X99.03 Y109.232 E.04005
G1 X99.041 Y100.632 E.26965
G1 X99.245 Y99.438 E.03798
G1 X99.623 Y98.347 E.0362
G1 X100.056 Y97.503 E.02974
G1 X99.611 Y96.626 E.03084
G1 X99.258 Y95.612 E.03366
G1 X99.036 Y94.314 E.04129
G1 X99.026 Y85.839 E.26573
G1 X99.155 Y84.836 E.03171
G1 X99.402 Y83.914 E.02993
G1 X99.782 Y83.01 E.03075
G1 X100.294 Y82.141 E.03162
G1 X100.495 Y81.896 E.00994
M204 S1000
G1 X100.785 Y82.134 F10800
M204 S800
G1 F1200
G1 X101.327 Y81.475 E.02675
G1 X101.958 Y80.901 E.02675
G1 X102.659 Y80.405 E.02692
G1 X103.977 Y79.779 E.04575
G1 X104.902 Y79.526 E.03007
G1 X105.823 Y79.405 E.02913
G1 X113.994 Y79.398 E.2562
G1 X115.062 Y79.518 E.0337
G1 X116.105 Y79.808 E.03394
G1 X117.143 Y80.289 E.03587
G1 X117.5 Y80.529 E.01349
G1 X117.86 Y80.288 E.01358
G1 X118.885 Y79.812 E.03543
G1 X119.738 Y79.562 E.02787
G1 X120.643 Y79.418 E.02873
G1 X129.016 Y79.4 E.26253
G1 X130.066 Y79.519 E.03313
G1 X131.108 Y79.809 E.03391
G1 X132.177 Y80.309 E.037
G1 X132.494 Y80.522 E.01197
G1 X132.963 Y80.231 E.01731
G1 X133.919 Y79.8 E.03288
G1 X135.027 Y79.501 E.03598
G1 X135.815 Y79.406 E.02489
G1 X144.011 Y79.399 E.25698
G1 X145.052 Y79.516 E.03285
G1 X146.035 Y79.783 E.03194
G1 X147.23 Y80.34 E.04134
G1 X148.226 Y81.053 E.03841
G1 X148.995 Y81.831 E.0343
G1 X149.642 Y82.74 E.03498
G1 X150.142 Y83.763 E.0357
G1 X150.467 Y84.864 E.03599
G1 X150.605 Y86.066 E.03794
G1 X150.592 Y94.225 E.25582
G1 X150.469 Y95.125 E.02848
G1 X150.203 Y96.075 E.03093
G1 X149.756 Y97.061 E.03394
G1 X149.479 Y97.512 E.01659
G1 X149.706 Y97.849 E.01274
G1 X150.171 Y98.84 E.03432
G1 X150.503 Y100.05 E.03934
G1 X150.609 Y101.15 E.03465
G1 X150.597 Y109.15 E.25083
G1 X150.469 Y110.125 E.03083
G1 X150.202 Y111.076 E.03097
G1 X149.741 Y112.088 E.03487
G1 X149.479 Y112.511 E.0156
G1 X149.703 Y112.843 E.01256
G1 X150.168 Y113.83 E.03421
G1 X150.502 Y115.046 E.03954
G1 X150.607 Y116.115 E.03368
G1 X150.596 Y124.19 E.25319
G1 X150.386 Y125.486 E.04117
G1 X150.134 Y126.255 E.02537
G1 X149.725 Y127.118 E.02994
G1 X149.334 Y127.733 E.02285
G1 X148.871 Y128.311 E.02322
G1 X148.148 Y129.013 E.0316
G1 X147.333 Y129.597 E.03144
G1 X146.521 Y130.023 E.02875
G1 X145.628 Y130.347 E.02979
G1 X144.197 Y130.595 E.04554
G1 X135.803 Y130.593 E.26319
G1 X134.871 Y130.468 E.02948
G1 X133.917 Y130.2 E.03107
G1 X132.911 Y129.741 E.03467
G1 X132.491 Y129.48 E.0155
G1 X132.207 Y129.674 E.01078
G1 X131.48 Y130.041 E.02553
G1 X130.453 Y130.393 E.03404
G1 X129.315 Y130.585 E.03619
G1 X120.878 Y130.598 E.26454
G1 X119.902 Y130.474 E.03085
G1 X118.924 Y130.202 E.03183
G1 X117.912 Y129.741 E.03487
G1 X117.491 Y129.48 E.01553
G1 X117.207 Y129.674 E.01078
G1 X116.48 Y130.041 E.02553
G1 X115.459 Y130.392 E.03385
G1 X114.353 Y130.582 E.03519
G1 X105.852 Y130.597 E.26654
G1 X104.96 Y130.486 E.02818
G1 X104.058 Y130.25 E.02923
G1 X102.896 Y129.733 E.03988
G1 X102.268 Y129.335 E.02331
G1 X101.689 Y128.871 E.02326
G1 X100.987 Y128.148 E.0316
G1 X100.403 Y127.333 E.03144
G1 X99.977 Y126.521 E.02875
G1 X99.653 Y125.628 E.02979
G1 X99.405 Y124.197 E.04554
G1 X99.408 Y115.777 E.264
G1 X99.534 Y114.864 E.0289
G1 X99.812 Y113.883 E.03197
G1 X100.138 Y113.142 E.02538
G1 X100.523 Y112.487 E.02382
G1 X100.275 Y112.118 E.01394
G1 X99.867 Y111.258 E.02985
G1 X99.592 Y110.393 E.02846
G1 X99.407 Y109.218 E.0373
G1 X99.415 Y100.679 E.26773
G1 X99.606 Y99.546 E.03603
G1 X99.975 Y98.483 E.03528
G1 X100.363 Y97.732 E.0265
G1 X100.523 Y97.498 E.00889
G1 X100.346 Y97.24 E.00981
G1 X99.963 Y96.49 E.0264
G1 X99.619 Y95.502 E.0328
G1 X99.413 Y94.298 E.0383
G1 X99.403 Y85.851 E.26485
G1 X99.527 Y84.897 E.03016
G1 X99.762 Y84.025 E.02832
G1 X100.124 Y83.168 E.02917
G1 X100.611 Y82.345 E.02998
G1 X100.747 Y82.181 E.00668
M204 S1000
G1 X101.036 Y82.419 F10800
M204 S800
G1 F1200
G1 X101.591 Y81.745 E.02738
G1 X102.203 Y81.188 E.02595
G1 X102.863 Y80.722 E.02533
G1 X104.093 Y80.138 E.04269
G1 X104.965 Y79.898 E.02836
G1 X105.836 Y79.782 E.02755
G1 X113.962 Y79.774 E.25479
G1 X115.004 Y79.891 E.03288
G1 X115.988 Y80.167 E.03204
G1 X116.969 Y80.624 E.03393
G1 X117.499 Y80.987 E.02014
G1 X118.034 Y80.622 E.02031
G1 X119.006 Y80.169 E.03362
G1 X119.81 Y79.932 E.02628
G1 X120.659 Y79.795 E.02696
G1 X128.984 Y79.775 E.26103
G1 X130.008 Y79.892 E.03232
G1 X130.991 Y80.168 E.03201
G1 X132.002 Y80.643 E.03502
G1 X132.483 Y80.974 E.01831
G1 X133.131 Y80.569 E.02396
G1 X134.032 Y80.16 E.03102
G1 X135.112 Y79.869 E.03507
G1 X135.848 Y79.782 E.02324
G1 X143.98 Y79.775 E.25497
G1 X144.967 Y79.884 E.03113
G1 X145.92 Y80.142 E.03096
G1 X147.025 Y80.657 E.03822
G1 X147.969 Y81.33 E.03635
G1 X148.716 Y82.085 E.0333
G1 X149.325 Y82.945 E.03304
G1 X149.796 Y83.913 E.03375
G1 X150.101 Y84.954 E.03401
G1 X150.227 Y86.076 E.0354
G1 X150.216 Y94.187 E.25431
G1 X150.102 Y95.036 E.02686
G1 X149.843 Y95.959 E.03006
G1 X149.418 Y96.894 E.0322
G1 X149.028 Y97.523 E.02321
G1 X149.372 Y98.025 E.01908
G1 X149.812 Y98.956 E.03229
G1 X150.135 Y100.134 E.0383
G1 X150.232 Y101.159 E.03228
G1 X150.221 Y109.114 E.24942
G1 X150.102 Y110.037 E.02918
G1 X149.843 Y110.96 E.03006
G1 X149.404 Y111.919 E.03307
G1 X149.028 Y112.521 E.02225
G1 X149.369 Y113.019 E.01892
G1 X149.808 Y113.946 E.03216
G1 X150.134 Y115.13 E.0385
G1 X150.231 Y116.141 E.03184
G1 X150.219 Y124.174 E.25187
G1 X150.023 Y125.384 E.03843
G1 X149.788 Y126.105 E.02378
G1 X149.4 Y126.927 E.0285
G1 X149.033 Y127.506 E.02149
G1 X148.599 Y128.049 E.0218
G1 X147.917 Y128.715 E.02989
G1 X147.124 Y129.283 E.03058
G1 X146.358 Y129.683 E.02709
G1 X145.516 Y129.987 E.02807
G1 X144.181 Y130.218 E.04248
G1 X135.84 Y130.218 E.26153
G1 X134.96 Y130.101 E.02783
G1 X134.034 Y129.841 E.03016
G1 X133.08 Y129.403 E.03291
G1 X132.48 Y129.028 E.02218
G1 X132.024 Y129.344 E.0174
G1 X131.322 Y129.698 E.02465
G1 X130.346 Y130.031 E.03233
G1 X129.269 Y130.211 E.03424
G1 X120.89 Y130.221 E.26272
G1 X119.964 Y130.102 E.02927
M73 P3 R29
G1 X119.04 Y129.843 E.03009
G1 X118.081 Y129.404 E.03307
M73 Q3 S29
G1 X117.48 Y129.028 E.02223
G1 X117.024 Y129.344 E.0174
G1 X116.322 Y129.698 E.02465
G1 X115.351 Y130.03 E.03218
G1 X114.306 Y130.208 E.03324
G1 X105.864 Y130.22 E.26469
G1 X105.02 Y130.113 E.02667
G1 X104.169 Y129.889 E.02759
G1 X103.085 Y129.407 E.0372
G1 X102.495 Y129.033 E.0219
G1 X101.951 Y128.599 E.02182
G1 X101.285 Y127.917 E.02989
G1 X100.717 Y127.124 E.03058
G1 X100.317 Y126.358 E.02709
G1 X100.013 Y125.516 E.02807
G1 X99.782 Y124.181 E.04248
G1 X99.784 Y115.814 E.26234
G1 X99.9 Y114.954 E.02721
G1 X100.171 Y113.998 E.03116
G1 X100.478 Y113.305 E.02377
G1 X100.97 Y112.472 E.03033
G1 X100.609 Y111.942 E.02011
G1 X100.222 Y111.131 E.02818
G1 X99.962 Y110.319 E.02673
G1 X99.784 Y109.203 E.03543
G1 X99.79 Y100.726 E.26579
G1 X99.968 Y99.654 E.03407
G1 X100.316 Y98.644 E.03349
G1 X100.691 Y97.917 E.02565
G1 X100.985 Y97.498 E.01605
G1 X100.676 Y97.056 E.01691
G1 X100.305 Y96.33 E.02556
G1 X99.981 Y95.394 E.03106
G1 X99.79 Y94.282 E.03538
G1 X99.78 Y85.863 E.26397
G1 X99.899 Y84.959 E.02859
G1 X100.123 Y84.137 E.02671
G1 X100.466 Y83.327 E.02758
G1 X100.928 Y82.551 E.02832
G1 X100.998 Y82.465 E.00348
M204 S1000
G1 X101.288 Y82.703 F10800
M204 S800
G1 F1200
G1 X101.855 Y82.014 E.02798
